X: 7
T: POLKA
M: 4/4
L: 1/8
Q:1/4=120
K:C 
|:efg3/2 z/2 age3/2 z/2 |fedc egec|efg3/2 z/2 age3/2 z/2 |fedc dBc3/2 z/
2:|
|:ecGc defd/2d/2|dB/2B/2Bd/2d/2 dfec|ecGc defd/2d/2|dB/2B/2Bd/2d/2 dBc3/
2 z/2:|
